svgs/light/hands-bubbles.svg

<svg xmlns="http://www.w3.org/2000/svg" viewBox="0 0 576 512"><!--! Font Awesome Pro 6.0.0-alpha3 by @fontawesome - https://fontawesome.com License - https://fontawesome.com/license (Commercial License) --><path d="M112 384c-35.29 0-64 28.71-64 64s28.71 63.1 64 63.1s64-28.71 64-63.1S147.3 384 112 384zM112 480c-17.67 0-32-14.33-32-32s14.33-32 32-32s32 14.33 32 32S129.7 480 112 480zM464 112c30.88 0 56-25.12 56-56s-25.12-56-56-56s-56 25.12-56 56S433.1 112 464 112zM464 32c13.26 0 24 10.75 24 24s-10.74 24-24 24s-24-10.75-24-24S450.7 32 464 32zM496 168c0 13.25 10.74 24 24 24S544 181.3 544 168s-10.74-24-24-24S496 154.7 496 168zM508.6 289.8c3.203-8.023 4.217-16.87 2.789-25.63c-3.789-23.28-24.07-40.17-48.22-40.17h-104.3c2.299-9.023 2.008-18.81-1.41-28.2c-6.879-18.89-25-31.58-45.11-31.58c-5.605 0-11.12 .9746-15.47 2.57L183.1 203.9C131.5 221.2 96 270.2 96 325.5v12.12c0 8.837 7.163 16 15.1 16S128 346.5 128 337.6v-12.11c0-41.46 26.62-78.24 66-91.19l112.8-37.1c1.807-.6562 3.654-.9687 5.471-.9687c6.537 0 12.67 4.031 15.04 10.53c3.021 8.305-1.26 17.48-9.562 20.51L280.7 240.5c-8.458 3.016-6.293 15.54 2.687 15.54h179.7c7.971 0 15.36 5.447 16.64 13.31c1.628 10.02-6.067 18.68-15.78 18.68h-111.1c-7.969 0-15.36 5.445-16.64 13.31c-1.631 10.02 6.064 18.69 15.78 18.69l143.1 0c7.971 0 15.36 5.447 16.64 13.32c1.628 10.02-6.067 18.68-15.78 18.68h-143.1c-7.969 0-15.36 5.445-16.64 13.31c-1.631 10.02 6.064 18.69 15.78 18.69l111.1 0c7.971 0 15.36 5.447 16.64 13.32c1.628 10.02-6.067 18.68-15.78 18.68h-111.1c-7.969 0-15.36 5.445-16.64 13.31c-1.631 10.02 6.064 18.69 15.78 18.69l79.14 0c7.971 0 15.36 5.447 16.64 13.32c1.628 10.02-6.067 18.68-15.78 18.68H224c-2.684 0-6.26-.3395-9.705-.7681c-.4799-.0597-11.16-1.604-16.39 9.29c-4.723 9.842 1.79 21.21 12.62 22.6C214.9 511.7 219.4 512 224 512l206.5 .0002c9.642 0 19.31-2.281 27.4-7.527c16.57-10.74 24.53-29.69 21.5-48.3c-.5586-3.436-1.479-6.734-2.717-9.861c9.229-2.516 17.58-7.766 23.92-15.22c9.137-10.74 13.07-24.93 10.79-38.92c-.5586-3.436-1.479-6.734-2.717-9.861c9.229-2.516 17.58-7.766 23.92-15.22c9.137-10.74 13.07-24.93 10.79-38.92C540.3 309.4 526.5 294.8 508.6 289.8zM64 304.3v-128.3c0-9.719 8.664-17.41 18.69-15.78C90.55 161.5 96 168.9 96 176.9v17.54c0 10.98 12.2 17.56 21.38 11.53c2.48-1.631 4.369-4.02 5.385-6.809L176.5 51.52c2.404-6.607 8.639-11.34 15.45-11.34c.9082 0 1.828 .084 2.748 .2598c9.979 1.895 15.49 12.09 12.16 21.22L177.1 143.4C173.1 154.5 182.1 166.3 193.8 164.9c10.42-1.287 13.17-9.922 13.31-10.32l40.49-111.2c2.406-6.607 8.641-11.34 15.45-11.34c.9102 0 1.828 .084 2.75 .2598C275.8 34.15 281.3 44.35 277.1 53.47L253.7 120C249.2 132.6 261.1 144.9 273.8 140.7c4.66-1.533 8.357-5.119 10.04-9.725l12.99-35.7c2.404-6.605 8.641-11.34 15.45-11.34c.9082 0 1.826 .082 2.746 .2578c9.977 1.896 15.49 12.09 12.16 21.22l-1.428 3.924c-4.17 11.45 2.129 23.7 13.6 27.82c2.172 .7793 8.834 3.123 17.49-.3555c1.441-.5781 2.979-.9082 4.613-.9082c.9082 0 1.828 .084 2.748 .2598c9.979 1.895 15.49 12.09 12.16 21.22L375.5 158.9c-4.219 7.4-2.014 16.8 5.055 21.55c8.77 5.895 20.74 1.992 24.35-7.932l.9766-2.684c3.299-9.064 4.473-18.94 2.318-28.34c-4.414-19.26-19.51-33.24-38.04-36.75c-2.924-.5547-5.84-.8223-8.723-.8223c-.4941 0-.9863 .0078-1.479 .0234c.7969-9.539-1.277-19.19-6.115-27.7c-6.971-12.26-18.95-20.81-32.89-23.46c-2.922-.5547-5.832-.8184-8.713-.8184c-.4941 0-.9883 .0078-1.48 .0234c.7969-9.541-1.277-19.2-6.119-27.71C297.7 12.01 285.7 3.465 271.8 .8245c-2.926-.5566-5.84-.8242-8.723-.8242C247.4 .0042 232.8 7.846 223.8 20.41c-6.451-5.768-14.43-9.754-23.16-11.41c-2.924-.5566-5.838-.8223-8.721-.8223c-20.18 0-38.47 13.02-45.52 32.39L110.6 139.1C102.3 132.2 91.61 128 80 128c-26.46 0-47.1 21.53-48 48.01l.0586 128.2c.002 8.674 7.025 15.71 15.7 15.73l.4687 .002C56.93 320 64 312.1 64 304.3z"/></svg>

<svg xmlns="http://www.w3.org/2000/svg" viewBox="0 0 576 512"><!-- Font Awesome Pro 6.0.0-alpha2 by @fontawesome - https://fontawesome.com License - https://fontawesome.com/license (Commercial License) --><path d="M112 384C76.711 384 48 412.711 48 448S76.711 512 112 512S176 483.289 176 448S147.289 384 112 384ZM112 480C94.326 480 80 465.674 80 448S94.326 416 112 416S144 430.327 144 448S129.674 480 112 480ZM464 112C494.879 112 520 86.879 520 56S494.879 0 464 0S408 25.121 408 56S433.121 112 464 112ZM464 32C477.256 32 488 42.746 488 56S477.256 80 464 80S440 69.254 440 56S450.744 32 464 32ZM496 168C496 181.254 506.744 192 520 192S544 181.254 544 168S533.256 144 520 144S496 154.746 496 168ZM508.578 289.825C511.781 281.801 512.795 272.959 511.367 264.194C507.578 240.918 487.299 224.026 463.145 224.026H358.801C361.1 215.002 360.809 205.217 357.391 195.825C350.512 176.934 332.387 164.244 312.285 164.244C306.68 164.244 301.16 165.219 296.814 166.815L183.998 203.92C131.488 221.191 96 270.221 96 325.498V337.614C96 346.45 103.163 353.614 112 353.614H112C120.837 353.614 128 346.45 128 337.614V325.506C128 284.045 154.618 247.269 194.004 234.315L306.814 197.211C308.621 196.555 310.469 196.243 312.285 196.243C318.822 196.243 324.957 200.274 327.322 206.772C330.344 215.076 326.063 224.254 317.76 227.278L280.711 240.489C272.253 243.505 274.418 256.024 283.398 256.024H463.145C471.116 256.024 478.506 261.47 479.784 269.339C481.412 279.36 473.717 288.02 464.002 288.02H352.857C344.888 288.02 337.501 293.465 336.221 301.331C334.59 311.354 342.285 320.018 352.002 320.018L495.145 320.018C503.116 320.018 510.506 325.465 511.784 333.333C513.412 343.354 505.717 352.014 496.002 352.014H352.857C344.888 352.014 337.501 357.459 336.221 365.325C334.59 375.349 342.285 384.012 352.002 384.012L463.145 384.012C471.116 384.012 478.506 389.459 479.784 397.327C481.412 407.349 473.717 416.008 464.002 416.008H352.857C344.888 416.008 337.501 421.453 336.221 429.319C334.59 439.343 342.285 448.006 352.002 448.006L431.145 448.006C439.116 448.006 446.506 453.453 447.784 461.321C449.412 471.343 441.717 480.002 432.002 480.002H224C221.316 480.002 217.74 479.663 214.295 479.234C213.815 479.175 203.136 477.631 197.909 488.524C193.186 498.366 199.699 509.731 210.526 511.119C214.938 511.685 219.425 512 224 512L430.462 512.001C440.104 512.001 449.775 509.719 457.865 504.474C474.435 493.729 482.396 474.78 479.367 456.176C478.809 452.741 477.889 449.442 476.65 446.315C485.879 443.799 494.234 438.549 500.572 431.098C509.709 420.354 513.645 406.17 511.367 392.182C510.809 388.746 509.889 385.448 508.65 382.321C517.879 379.805 526.234 374.555 532.572 367.104C541.709 356.36 545.645 342.176 543.367 328.188C540.309 309.395 526.5 294.764 508.578 289.825ZM64 304.282V176.03C64 166.311 72.664 158.619 82.689 160.25C90.555 161.532 96 168.918 96 176.885V194.424C96 205.403 108.203 211.985 117.379 205.951C119.859 204.321 121.748 201.932 122.764 199.143L176.5 51.518C178.904 44.91 185.139 40.178 191.951 40.178C192.859 40.178 193.779 40.262 194.699 40.438C204.678 42.332 210.188 52.524 206.863 61.657L177.119 143.368C173.08 154.469 182.057 166.332 193.781 164.883C204.203 163.596 206.951 154.961 207.096 154.565L247.586 43.338C249.992 36.731 256.227 31.998 263.037 31.996C263.947 31.996 264.865 32.08 265.787 32.256C275.764 34.151 281.273 44.346 277.951 53.475L253.719 120.045C249.15 132.598 261.066 144.889 273.754 140.715C278.414 139.182 282.111 135.596 283.789 130.991L296.783 95.291C299.188 88.686 305.424 83.953 312.236 83.953C313.145 83.953 314.063 84.035 314.982 84.211C324.959 86.108 330.469 96.299 327.146 105.43L325.719 109.354C321.549 120.807 327.848 133.057 339.322 137.17C341.494 137.95 348.156 140.293 356.816 136.815C358.258 136.237 359.795 135.907 361.43 135.907C362.338 135.907 363.258 135.991 364.178 136.166C374.156 138.061 379.666 148.254 376.342 157.385L375.484 158.889C371.266 166.289 373.471 175.69 380.539 180.438C389.309 186.332 401.279 182.43 404.893 172.506L405.869 169.823C409.168 160.758 410.342 150.887 408.188 141.487C403.773 122.225 388.678 108.248 370.152 104.733C367.229 104.178 364.313 103.91 361.43 103.91C360.936 103.91 360.443 103.918 359.951 103.934C360.748 94.395 358.674 84.743 353.836 76.231C346.865 63.973 334.883 55.422 320.949 52.774C318.027 52.219 315.117 51.955 312.236 51.955C311.742 51.955 311.248 51.963 310.756 51.979C311.553 42.438 309.479 32.784 304.637 24.272C297.666 12.012 285.68 3.465 271.766 0.825C268.84 0.268 265.926 0 263.043 0H263.027C247.369 0.004 232.848 7.846 223.836 20.414C217.385 14.647 209.41 10.66 200.672 9.002C197.748 8.446 194.834 8.18 191.951 8.18C171.775 8.18 153.482 21.2 146.43 40.575L110.58 139.063C102.27 132.18 91.609 128.035 80 128.035C53.535 128.035 32.002 149.565 32 176.041L32.059 304.285C32.061 312.959 39.084 319.996 47.76 320.016L48.229 320.018C56.932 320.037 64 312.987 64 304.282Z"/></svg>
